!!!COM: Mozart, Wolfgang Amadeus
!!!CDT: 1756/01/27/-1791/12/05/
!!!CNT: German
!!!OTL: Piano Sonata No. 8 in A minor
!!!SCT1: K<sup>1</sup> 310
!!!SCT2: K<sup>6</sup> 300d
!!!OMV: Mvmt. 1
!!!OMD: Allegro maestoso
!!!ODT: 1778///
**kern	**kern	**dynam
*staff2	*staff1	*staff1/2
*>[A,A,B,B]	*>[A,A,B,B]	*>[A,A,B,B]
*>norep[A,B]	*>norep[A,B]	*>norep[A,B]
*>A	*>A	*>A
*clefF4	*clefG2	*clefG2
*k[]	*k[]	*k[]
*a:	*a:	*a:
*M4/4	*M4/4	*M4/4
*met(c)	*met(c)	*met(c)
*MM120	*MM120	*MM120
=1-	=1-	=1-
.	16dd#q/	.
8A\ 8c\ 8e\L	4ee\	f
8A\ 8c\ 8e\	.	.
8A\ 8c\ 8e\	8.ee\L	.
8A\ 8c\ 8e\J	.	.
.	16ee\Jk	.
8A\ 8c\ 8e\L	4ee\	.
8A\ 8c\ 8e\	.	.
8A\ 8c\ 8e\	8.cc/L	.
8A\ 8c\ 8e\J	.	.
.	16a/Jk	.
=2	=2	=2
.	16aq/	.
8A\ 8B\ 8d\ 8e\L	4g#/	.
8A\ 8B\ 8d\ 8e\	.	.
8A\ 8B\ 8d\ 8e\	2g#/	.
8A\ 8B\ 8d\ 8e\J	.	.
8A\ 8B\ 8d\ 8e\L	.	.
8A\ 8B\ 8d\ 8e\	.	.
8A\ 8B\ 8d\ 8e\	(8.dd\L	.
8A\ 8B\ 8d\ 8e\J	.	.
.	16b\Jk	.
=3	=3	=3
8A\ 8c\ 8e\L	4ee\)	.
8A\ 8c\ 8e\	.	.
8A\ 8c\ 8e\	8.ee\L	.
8A\ 8c\ 8e\J	.	.
.	16ee\Jk	.
8A\ 8c\ 8e\L	(8ee\L	.
8A\ 8c\ 8e\	16ff\L	.
.	16ee\JJ	.
8A\ 8c\ 8e\	16dd\LL	.
.	16cc\	.
8A\ 8c\ 8e\J	16b\)	.
.	16a\JJ	.
=4	=4	=4
.	16aq/	.
8A\ 8B\ 8d\ 8e\L	4g#/	.
8A\ 8B\ 8d\ 8e\	.	.
8A\ 8B\ 8d\ 8e\	2g#/	.
8A\ 8B\ 8d\ 8e\J	.	.
8A\ 8B\ 8d\ 8e\L	.	.
8A\ 8B\ 8d\ 8e\	.	.
8A\ 8B\ 8d\ 8e\	(8.dd\L	.
8A\ 8B\ 8d\ 8e\J	.	.
.	16b\Jk)	.
=5	=5	=5
8A\ 8c\ 8e\	8.cc\ (8.ee\L	.
8A\L	.	.
.	16a\ 16cc\Jk)	.
8E\	4cc\ 4ee\	.
8C\J	.	.
4AA/	8r	.
.	8a'\ 8cc'\L	p
4r	8b'\ 8dd'\	.
.	8cc'\ 8ee'\J	.
=6	=6	=6
*^	*	*
4ryy	4r	4cc#\ (4ee\	.
(4d/	(4F\ 4A\ 4cn\	8dd\ 8ff\)	.
.	.	8r	.
8d/	8G\) 8B\)	8r	.
8ryy	8r	8g'\ 8b'\L	.
4ryy	4r	8a'\ 8ccn'\	.
.	.	8b'\ 8dd'\J	.
=7	=7	=7	=7
4ryy	4r	4b\ (4dd#\	.
4c/	(4E\ 4G\ (4B\	8cc\ 8ee\)	.
.	.	8r	.
8c/)	8F\) 8A\	8r	.
8ryy	8r	8f'/ 8a'/L	.
4ryy	4r	8g#'/ 8b'/	.
.	.	8a'/ 8cc'/J	.
*v	*v	*	*
=8	=8	=8
4r	(8.cc\L	.
.	16b\k	.
4D\ 4F\ (4B\	8.ff\	.
.	16ddn\Jk	.
4E\ 4A\ 4c\	8.cc\L	.
.	16ee\k	.
4E\ 4G#\ 4B\)	8.dd\	.
.	16b\Jk)	.
=9	=9	=9
.	16dd#q/	.
8A\ 8c\ 8e\L	4ee\	f
8A\ 8c\ 8e\	.	.
8A\ 8c\ 8e\	8.ee\L	.
8A\ 8c\ 8e\J	.	.
.	16ee\Jk	.
8A\ 8c\ 8e\L	(8ee\L	.
8A\ 8c\ 8e\	16ff\L	.
.	16ee\JJ	.
8A\ 8c\ 8e\	16ddn\LL	.
.	16cc\	.
8A\ 8c\ 8e\J	16b\	.
.	16a\JJ)	.
=10	=10	=10
8A\ 8B\ 8d\ 8f\L	(8a/L	.
8A\ 8B\ 8d\ 8f\	8g#/J)	.
8A\ 8B\ 8d\ 8f\	[4g#/	.
8A\ 8B\ 8d\ 8f\J	.	.
8A\ 8B\ 8d\ 8f\L	8.g#/L]	.
8A\ 8B\ 8d\ 8f\	.	.
.	(16g#/k	.
8A\ 8B\ 8d\ 8f\	8.dd/)	.
8A\ 8B\ 8d\ 8f\J	.	.
.	(16b/Jk	.
=11	=11	=11
8A\ 8c\ 8e\L	4ee\)	.
8A\ 8c\ 8e\	.	.
8A\ 8c\ 8e\	8.ee\L	.
8A\ 8c\ 8e\J	.	.
.	16ee\Jk	.
8A\ 8c\ 8e\L	(16dd#\LL	.
.	16ee\	.
8A\ 8c\ 8e\	16ff\	.
.	16ee\JJ	.
8A\ 8c\ 8e\	16ddn\LL	.
.	16cc\	.
8A\ 8c\ 8e\J	16b\	.
.	16a\JJ	.
=12	=12	=12
8Gn\ 8B-\ 8c\ 8e\L	8cc\L	.
8G\ 8B-\ 8c\ 8e\	8b-\J)	.
8G\ 8B-\ 8c\ 8e\	[4b-\	.
8G\ 8B-\ 8c\ 8e\J	.	.
8G\ 8B-\ 8c\ 8e\L	8.b-\L]	.
8G\ 8c\ 8e\	.	.
.	(16ee\k	.
8G\ 8B-\ 8c\ 8e\	8.gg\)	.
8G\ 8B-\ 8c\ 8e\J	.	.
.	16bb-'\Jk	.
=13	=13	=13
8F\ 8c\ 8f\L	(8bb-\L	.
8F\ 8c\ 8f\	8aa\)	.
8F\ 8A\ 8d\	8ff'\	.
8F\ 8A\ 8d\J	8dd'\J	.
8E\ 8G\ 8A\L	(8dd\L	.
8E\ 8G\ 8A\	8cc#\)	.
8E\ 8A\ 8c#\	8ee'\	.
8E\ 8A\ 8c#\J	8gg'\J	.
=14	=14	=14
4D\ 4A\ 4d\	(8gg\L	.
.	8ff#\J)	.
4BBn\ 4D\ 4G\	8r	.
.	8ffn\	.
4Cn\ 4G\	8r	.
.	8dd#\	.
4A\ 4c\	8r	.
.	8ee\	.
=15	=15	=15
(8F\L	(8ee\L	p
8A\	8ddn\J)	.
8F\	(4.dd\	.
8A\J	.	.
8F\L	.	.
8A\	16ee\LL	.
.	16dd\JJ)	.
8F#\	(16dd\LL	.
.	16cc\	.
8A\J)	16b\	.
.	16cc\JJ	.
=16	=16	=16
16G\LL	4b\)	f
16d\	.	.
16B\	.	.
16d\JJ	.	.
16G\LL	8.gg\L	f
16d\	.	.
16B\	.	.
16d\JJ	16gg\Jk	.
16G\LL	4gg\	.
16e-\	.	.
16c\	.	.
16e-\JJ	.	.
16G\LL	4gg\	.
16fn\	.	.
16d\	.	.
16f\JJ	.	.
=17	=17	=17
*	*^	*
16G\LL	(4.ccc/	1cc	.
16e-\	.	.	.
16c\	.	.	.
16e-\JJ	.	.	.
16G\LL	.	.	.
16e-\	.	.	.
16c\	16bb-/LL	.	.
16e-\JJ	16aa-/JJ	.	.
16G\LL	4gg/	.	.
16e-\	.	.	.
16c\	.	.	.
16e-\JJ	.	.	.
16G\LL	4ff#/)	.	.
16e-\	.	.	.
16c\	.	.	.
16e-\JJ	.	.	.
*	*v	*v	*
=18	=18	=18
16G\LL	4bn\ 4gg\	.
16d\	.	.
16B\	.	.
16d\JJ	.	.
16G\LL	8.gg\L	p
16d\	.	.
16B\	.	.
16d\JJ	16gg\Jk	.
16G\LL	4gg\	.
16e-\	.	.
16c\	.	.
16e-\JJ	.	.
16G\LL	4gg\	.
16fn\	.	.
16d\	.	.
16f\JJ	.	.
=19	=19	=19
*	*^	*
16G\LL	(4.ccc/	1cc	.
16e-\	.	.	.
16c\	.	.	.
16e-\JJ	.	.	.
16G\LL	.	.	.
16e-\	.	.	.
16c\	16bb-/LL	.	.
16e-\JJ	16aa-/JJ	.	.
16G\LL	4gg/	.	.
16e-\	.	.	.
16c\	.	.	.
16e-\JJ	.	.	.
16G\LL	4ff#/)	.	.
16e-\	.	.	.
16c\	.	.	.
16e-\JJ	.	.	.
*	*v	*v	*
=20	=20	=20
4G\ 4B\ 4d\	(16gg\LL	f
.	16dd\	.
.	16bn\	.
.	16dd\JJ	.
8r	16gg\LL	.
.	16ee-\	.
8C\ 8c\	16cc\	.
.	16ee-\JJ	.
4GG/ 4G/	16gg\LL	.
.	16dd\	.
.	16b\	.
.	16dd\JJ	.
8r	16gg\LL	.
.	16ee-\	.
8C\ 8c\	16cc\	.
.	16ee-\JJ	.
=21	=21	=21
*	*^	*
4GG/ 4G/	2ryy	16gg\LL	.
.	.	16dd\	.
.	.	16b\	.
.	.	16dd\JJ	.
8r	.	16gg\LL	.
.	.	16ee-\	.
8C\ 8c\	.	16cc\	.
.	.	16ee-\JJ	.
8GG\ 8G\L	16dd/LL	8b\L	.
.	16gg/	.	.
8C\ 8c\	16ee-/	8cc\	.
.	16gg/JJ	.	.
8GG\ 8G\	16dd/LL	8b\	.
.	16gg/	.	.
8C\ 8c\J	16ee-/	8cc\J	.
.	16gg/JJ	.	.
=22	=22	=22	=22
4GG/ 4G/	4dd/)	4b\	.
4GGG/ 4GG/	2.ryy	4g:\ 4b:\ 4dd:\ 4gg:\	.
4GGG/ 4GG/	.	8r	.
.	.	8gg'\L	p
4r	.	8aa'\	.
.	.	8bb'\J	.
*	*v	*v	*
*clefG2	*	*
=23	=23	=23
8en/ 8g/L	(16ccc\LL	.
.	16ddd\	.
8e/ 8g/	16bb\	.
.	16ddd\JJ	.
8e/ 8g/	16ccc\LL	.
.	16ddd\	.
8e/ 8g/J	16bb\	.
.	16ddd\JJ	.
4e/ 4g/	16ccc\LL	.
.	16ddd\	.
.	16bb\	.
.	16ccc\JJ	.
4r	16aa\LL	.
.	16bb\	.
.	16gg\	.
.	16aa\JJ	.
=24	=24	=24
8d/ 8a/L	16ff\LL	.
.	16gg\	.
8d/ 8a/	16een\	.
.	16gg\JJ	.
8d/ 8a/	16ff\LL	.
.	16gg\	.
8d/ 8a/J	16ee\	.
.	16gg\JJ	.
4d/ 4a/	16ff\LL	.
.	16gg\	.
.	16ee\	.
.	16ff\JJ	.
4r	16dd\LL	.
.	16ee\	.
.	16cc\	.
.	16dd\JJ	.
*clefF4	*	*
=25	=25	=25
8G\ 8d\ 8f\L	16b\LL	.
.	16cc\	.
8G\ 8d\ 8f\	16a\	.
.	16cc\JJ	.
8G\ 8d\ 8f\	16b\LL	.
.	16cc\	.
8G\ 8d\ 8f\J	16a\	.
.	16cc\JJ	.
4G\ 4d\ 4f\	16b\LL	.
.	16cc\	.
.	16a\	.
.	16b\JJ	.
4r	16g/LL	.
.	16a/	.
.	16f/	.
.	16g/JJ	.
=26	=26	=26
4c\	16e/LL	.
.	16g/	.
.	16f/	.
.	16e/JJ	.
4r	16f/LL	.
.	16g/	.
.	16a/	.
.	16b/JJ	.
2r	16cc\LL	.
.	16dd\	.
.	16cc\	.
.	16b\JJ	.
.	16cc\LL	.
.	16dd\	.
.	16ee\	.
.	16ff\JJ)	.
=27	=27	=27
8E\ 8c\L	(16gg\LL	.
.	16aa\	.
8E\ 8c\	16ff#\	.
.	16aa\JJ	.
8E\ 8c\	16gg\LL	.
.	16aa\	.
8E\ 8c\J	16ff#\	.
.	16aa\JJ	.
4E\ 4c\	16gg\LL	.
.	16ccc\	.
.	16bb\	.
.	16ccc\JJ	.
4r	16ddd\LL	.
.	16ccc\	.
.	16bb\	.
.	16ccc\JJ	.
=28	=28	=28
*^	*	*
4r	2.F\	16bb\LL	.
.	.	16aa\	.
.	.	16gg#\	.
.	.	16aa\JJ	.
4A/	.	16ggn\LL	.
.	.	16ffn\	.
.	.	16ee\	.
.	.	16ff\JJ	.
[2d/	.	16ee\LL	.
.	.	16dd\	.
.	.	16cc#\	.
.	.	16dd\JJ	.
.	4F\	16cc#\LL	.
.	.	16dd\	.
.	.	16ee\	.
.	.	16ff\JJ	.
=29	=29	=29	=29
4d/]	2.E\	16aa\LL	.
.	.	16gg\	.
.	.	16ff#\	.
.	.	16gg\JJ	.
4G/	.	16ffn\LL	.
.	.	16ee\	.
.	.	16dd\	.
.	.	16ee\JJ	.
[2c/	.	16dd\LL	.
.	.	16ccn\	.
.	.	16b\	.
.	.	16cc\JJ	.
.	4E\	16b\LL	.
.	.	16cc\	.
.	.	16dd\	.
.	.	16ee\JJ	.
=30	=30	=30	=30
4c/]	4D\	16ff\LL	.
.	.	16gg\	.
.	.	16ee\	.
.	.	16ff\JJ	.
4A/	4F\	16dd\LL	.
.	.	16ee\	.
.	.	16cc\	.
.	.	16dd\JJ	.
[2G/	4G\	16b\LL	.
.	.	16cc\	.
.	.	16a\	.
.	.	16b\JJ	.
.	4BB\	16g/LL	.
.	.	16a/	.
.	.	16f/	.
.	.	16g/JJ	.
=31	=31	=31	=31
4G/]	4C\	16e/LL	.
.	.	16g/	.
.	.	16f/	.
.	.	16e/JJ	.
2G/	4D\	16f/LL	.
.	.	16g/	.
.	.	16a/	.
.	.	16b/JJ	.
.	2E\	16cc\LL	.
.	.	16dd\	.
.	.	16ee\	.
.	.	16dd\JJ	.
[4c/	.	16cc\LL	.
.	.	16b-\	.
.	.	16a\	.
.	.	16g#\JJ	.
=32	=32	=32	=32
4c/]	4F\	16a\LL	.
.	.	16bn\	.
.	.	16cc\	.
.	.	16b\JJ	.
2.ryy	4r	16cc\LL	.
.	.	16cc#\	.
.	.	16dd\	.
.	.	16cc#\JJ	.
.	2r	16dd\LL	.
.	.	16ee\	.
.	.	16ff\	.
.	.	16ee\JJ	.
.	.	16ff\LL	.
.	.	16gg#\	.
.	.	16aa\	.
.	.	16gg#\JJ	.
*v	*v	*	*
=33	=33	=33
(16F\LL	16aa\LL	.
16d\	16bb\	.
16A\	16cccn\	.
16d\JJ	16bb\JJ	.
16F\LL	16ccc\LL	.
16d\	16bb\	.
16A\	16ccc\	.
16d\JJ	16bb\JJ	.
16F\LL	16ddd\LL	.
16d\	16ccc\	.
16A\	16bb\	.
16d\JJ	16aa\JJ	.
16F\LL	16bb\LL	.
16d\	16aa\	.
16A\	16gg\	.
16d\JJ	16ff\JJ	.
=34	=34	=34
16G\LL	16ee\LL	.
16e\	16gg\	.
16c\	16aa\	.
16e\JJ	16gg\JJ	.
16G\LL	16ff\LL	.
16e\	16ee\	.
16c\	16dd\	.
16e\JJ	16cc\JJ)	.
16G\LL	2ddT\	.
16f\	.	.
16B\	.	.
16f\JJ	.	.
16G\LL	.	.
16f\	.	.
16B\	.	.
16f\JJ	.	.
.	16ccq/LL	.
.	16ddq/JJ	.
=35	=35	=35
4c\ 4e\)	16r	.
.	(16ccc\LL	.
.	16bb\	.
.	16aa\JJ	.
4r	16gg\LL	.
.	16aa\	.
.	16ff#\	.
.	16aa\JJ	.
4r	16gg\LL	.
.	16aa\	.
.	16ff#\	.
.	16aa\JJ	.
*clefG2	*	*
8b'/L	16gg\LL	.
.	16aa\	.
8g'/J	16ffn\	.
.	16gg\JJ	.
=36	=36	=36
4cc\	16ee\LL)	.
.	(16ccc\	.
.	16bb\	.
.	16aa\JJ	.
4r	16gg\LL	.
.	16aa\	.
.	16ff#\	.
.	16aa\JJ	.
4r	16gg\LL	.
.	16aa\	.
.	16ff#\	.
.	16aa\JJ	.
8b'/L	16gg\LL	.
.	16aa\	.
8g'/J	16ffn\	.
.	16gg\JJ	.
=37	=37	=37
*^	*	*
2ryy	4cc\	16ee\LL	.
.	.	16ff\	.
.	.	16dd\	.
.	.	16ee\JJ	.
.	4r	16cc\LL	.
.	.	16dd\	.
.	.	16b\	.
.	.	16cc\JJ	.
*v	*v	*	*
*clefF4	*	*
*^	*	*
4c/	2E\	16a/LL	.
.	.	16b/	.
.	.	16g/	.
.	.	16a/JJ	.
4G/	.	16f/LL	.
.	.	16g/	.
.	.	16e/	.
.	.	16f/JJ	.
=38	=38	=38	=38
2A/	2F\	8d/L	.
.	.	16e/L	.
.	.	16f/JJ	.
.	.	16g/LL	.
.	.	16a/	.
.	.	16b/	.
.	.	16cc/JJ	.
2G/ 2B/	2F\	16dd\LL	.
.	.	16ee\	.
.	.	16ff\	.
.	.	16gg\JJ	.
.	.	16aa\LL	.
.	.	16bb\	.
.	.	16ccc\	.
.	.	16ddd\JJ	.
=39	=39	=39	=39
4c/	4E\ 4G\	16eee\LL	.
.	.	16ccc\	.
.	.	16bb\	.
.	.	16ccc\JJ	.
2c/	4F\	16bb\LL	.
.	.	16aa\	.
.	.	16gg\	.
.	.	16ff\JJ	.
.	4G\	4ee\)	.
4B/	4G\	4ddT\	.
.	.	16ccq/LL	.
.	.	16ddq/JJ	.
*v	*v	*	*
*clefG2	*	*
=40	=40	=40
16r	4cc\	p
(16cc/LL	.	.
16b/	.	.
16a/JJ	.	.
16g/LL	4r	.
16a/	.	.
16f#/	.	.
16a/JJ	.	.
16g/LL	4r	.
16a/	.	.
16f#/	.	.
16a/JJ	.	.
16g/LL	8dd'\ 8bb'\L	.
16a/	.	.
16fn/	8gg'\J	.
16g/JJ	.	.
=41	=41	=41
16e/LL)	4ee\ 4ccc\	.
(16cc/	.	.
16b/	.	.
16a/JJ	.	.
16g/LL	4r	.
16a/	.	.
16f#/	.	.
16a/JJ	.	.
16g/LL	4r	.
16a/	.	.
16f#/	.	.
16a/JJ	.	.
16g/LL	8dd'\ 8bb'\L	.
16a/	.	.
16fn/	8gg'\J	.
16g/JJ	.	.
*clefF4	*	*
=42	=42	=42
*	*^	*
16e\LL	4ryy	4ee\ 4ccc\	.
16f\	.	.	.
16d\	.	.	.
16e\JJ	.	.	.
16c\LL	(8.ggT/L	4r	.
16d\	.	.	.
16B\	.	.	.
16c\JJ	32ff#/LL	.	.
.	32gg/JJJ	.	.
16A\LL	[2ccc/)	4r	.
16B\	.	.	.
16G\	.	.	.
16A\JJ	.	.	.
16F\LL	.	8.eet\L	.
16G\	.	.	.
16E\	.	.	.
16F\JJ	.	32dd\LL	.
.	.	32ee\JJJ	.
=43	=43	=43	=43
16D/LL	4ccc/]	2.ffn\	.
16E/	.	.	.
16C/	.	.	.
16D/JJ	.	.	.
16BB/LL	(8.ddd/L	.	.
16C/	.	.	.
16AA/	.	.	.
16BB/JJ	16eee/Jk	.	.
16GG/LL	4fff/)	.	.
16AA/	.	.	.
16FF/	.	.	.
16GG/JJ	.	.	.
16EE/LL	(8.bbt/L	[4gg\	.
16FF/	.	.	.
16DD/	.	.	.
16FF/JJ	32aa/LL	.	.
.	32bb/JJJ)	.	.
=44	=44	=44	=44
8EE/)	(16ccc/LL	16gg\]	.
.	16bb/	8.ryy	.
8r	16ccc/	.	.
.	16gg/JJ	.	.
8FF/	(16bb/LL)	8dd\	.
.	16aa/	.	.
8r	16gg/	8ryy	.
.	16ff/JJ)	.	.
8GG/	(16ee/LL	16cc\	.
.	16ff/	8.ryy	.
8r	16gg/	.	.
.	16ee/JJ	.	.
8GGG/	(16dd/LL)	16b\	.
.	16ee/	8.ryy	.
8r	16ff/	.	.
.	16dd/JJ)	.	.
*	*v	*v	*
=45	=45	=45
(16c\LL	4cc\	.
16d\	.	.
16e\	.	.
16d\JJ	.	.
16c\LL	8.cc\ 8.ee\L	.
16B\	.	.
16A\	.	.
16G#\JJ	16cc\ 16ee\Jk	.
16A\LL	4cc\ 4ee\	.
16B\	.	.
16c\	.	.
16B\JJ	.	.
16A\LL	8.cc\ 8.ee\L	.
16Gn\	.	.
16F\	.	.
16E\JJ	16cc\ 16ee\Jk	.
=46	=46	=46
16F\LL	4cc\ 4dd\	.
16G\	.	.
16A\	.	.
16G\JJ	.	.
16F\LL	8.cc\ 8.dd\L	.
16D\	.	.
16E\	.	.
16F\JJ	16cc\ 16dd\Jk	.
16G\LL	4b\ 4dd\	.
16F#\	.	.
16G\	.	.
16F#\JJ	.	.
16G\LL	8.b\ 8.gg\L	.
16Fn\	.	.
16E\	.	.
16D\JJ)	16b\ 16gg\Jk	.
=47	=47	=47
(16C/LL	4cc\ 4ee\	.
16D/	.	.
16E/	.	.
16D/JJ	.	.
16C/LL	8.cc\ 8.ee\ 8.ccc\L	.
16BB/	.	.
16AA/	.	.
16GG#/JJ	16cc\ 16ee\ 16ccc\Jk	.
16AA/LL	4cc\ 4ee\ 4ccc\	.
16BB/	.	.
16C/	.	.
16BB/JJ	.	.
16AA/LL	8.cc\ 8.ee\ 8.ccc\L	.
16GGn/	.	.
16FF/	.	.
16EE/JJ	16cc\ 16ee\ 16ccc\Jk	.
=48	=48	=48
16FF/LL	4dd\ 4aa\ 4ccc\	.
16GG/	.	.
16AA/	.	.
16GG/JJ	.	.
16FF/LL	8.dd\ 8.aa\ 8.ccc\L	.
16DD/	.	.
16EE/	.	.
16FF/JJ	16dd\ 16aa\ 16ccc\Jk	.
16GG/LL	4dd\ 4gg\ 4bb\	.
16FF#/	.	.
16GG/	.	.
16FF#/JJ	.	.
16GG/LL	8.dd\ 8.gg\ 8.bb\L	.
16FFn/	.	.
16EE/	.	.
16DD/JJ	16dd\ 16gg\ 16bb\Jk	.
=49	=49	=49
4CC/)	4ee:\ 4gg:\ 4ccc:\	.
4CC/ 4C/	4cc:\ 4ee:\ 4gg:\	.
4CC/ 4C/	4g:\ 4cc:\ 4ee:\	.
4r	4r	.
=50:|!	=50:|!	=50:|!
*>B	*>B	*>B
*clefG2	*	*
.	16ff#q/	.
8c/ 8e/ 8g/L	4gg\	.
8c/ 8e/ 8g/	.	.
8c/ 8e/ 8g/	8.gg\L	.
8c/ 8e/ 8g/J	.	.
.	16gg\Jk	.
8c/ 8e/ 8g/L	4gg\	.
8c/ 8e/ 8g/	.	.
8c/ 8e/ 8g/	(8.ee\L	.
8c/ 8e/ 8g/J	.	.
.	16cc\Jk)	.
=51	=51	=51
.	16ccq/	.
8c/ 8d/ 8f/ 8g/L	4b\	.
8c/ 8d/ 8f/ 8g/	.	.
8c/ 8d/ 8f/ 8g/	2b\	.
8c/ 8d/ 8f/ 8g/J	.	.
8c/ 8d/ 8f/ 8g/L	.	.
8c/ 8d/ 8f/ 8g/	.	.
8c/ 8d/ 8f/ 8g/	(8.ff\L	.
8c/ 8d/ 8f/ 8g/J	.	.
.	16dd\Jk	.
=52	=52	=52
8c/ 8e/ 8g/L	4gg\)	.
8c/ 8e/ 8g/	.	.
8c/ 8e/ 8g/	8.gg\L	.
8c/ 8e/ 8g/J	.	.
.	16gg\Jk	.
8c/ 8e/ 8g/L	(8gg\L	.
8c/ 8e/ 8g/	16aa\L	.
.	16gg\JJ	.
8c/ 8e/ 8g/	16ff\LL	.
.	16ee\	.
8c/ 8e/ 8g/J	16dd\	.
.	16cc\JJ)	.
=53	=53	=53
.	16ccq/	.
8d-/ 8e/ 8g/L	4b-\	.
8d-/ 8e/ 8g/	.	.
8d-/ 8e/ 8g/	4.b-\	.
8d-/ 8e/ 8g/J	.	.
8d-/ 8e/ 8g/L	.	.
8d-/ 8e/ 8g/	(8dd-\L	.
8d-/ 8e/ 8g/	8ee\	.
8d-/ 8e/ 8g/J	8gg\J)	.
=54	=54	=54
8c/ 8e/ 8g/L	(8bb-\L	.
8c/ 8e/ 8g/	8gg\	.
8c/ 8e/ 8g/	8ee\	.
8c/ 8e/ 8g/J	8cc\J	.
8d-/ 8e/ 8g/L	8b-\L	.
8d-/ 8e/ 8g/	8dd-\	.
8d-/ 8e/ 8g/	8ee\	.
8d-/ 8e/ 8g/J	8gg\J)	.
=55	=55	=55
8c/ 8e/ 8g/L	(8bb-\L	.
8c/ 8e/ 8g/	8gg\	.
8c/ 8e/ 8g/	8ee\	.
8c/ 8e/ 8g/J	8cc\J	.
8c#/ 8e/ 8g/L	8b-\L	.
8c#/ 8e/ 8g/	8cc#\	.
8c#/ 8e/ 8g/	8ee\	.
8c#/ 8e/ 8g/J	8gg\J)	.
=56	=56	=56
4cn/ 4e/ 4g/	(16bb-\LL	f
.	16gg\	.
.	16ee\	.
.	16ccn\JJ	.
4r	16gg\LL	.
.	16ee\	.
.	16cc\	.
.	16b-\JJ	.
2r	16ee\LL	.
.	16cc\	.
.	16b-\	.
.	16g\JJ	.
.	16cc/LL	.
.	16b-/	.
.	16g/	.
.	16e/JJ	.
*clefF4	*	*
=57	=57	=57
1CC 1EE 1GG 1AA#	16a#/LL	.
.	16g/	.
.	16e/	.
.	16c/JJ	.
.	16g/LL	.
.	16e/	.
.	16c/	.
.	16Bn/JJ	.
.	16A#'/LL)	.
.	(16g/	.
.	16f#/	.
.	16g/JJ	.
.	16an/LL	.
.	16g/	.
.	16f#/	.
.	16e/JJ)	.
=58	=58	=58
*	*^	*
16BBB/LL	4d#/ 4b/	2.ryy	ff
16BB/	.	.	.
16AA#/	.	.	.
16BB/JJ	.	.	.
16AA#/LL	8.d#/ 8.b/L	.	.
16BB/	.	.	.
16AA#/	.	.	.
16BB/JJ	16d#/ 16b/Jk	.	.
16BBB/LL	4d#/ 4b/	.	.
16BB/	.	.	.
16AA#/	.	.	.
16BB/JJ	.	.	.
16AA#/LL	4b/	4d#\ 4b\	.
16BB/	.	.	.
16AA#/	.	.	.
16BB/JJ	.	.	.
=59	=59	=59	=59
16BBB/LL	2e/ [2ccn\	8.b\L	.
16BB/	.	.	.
16AA#/	.	.	.
16BB/JJ	.	16b\k	.
16AA#/LL	.	8.an\	.
16BB/	.	.	.
16AA#/	.	.	.
16BB/JJ	.	16g#\Jk	.
16BBB/LL	8.cc/L]	2f#\ [2a\	.
16BB/	.	.	.
16AA#/	.	.	.
16BB/JJ	16dd#/k	.	.
16AA#/LL	8.ee/	.	.
16BB/	.	.	.
16AA#/	.	.	.
16BB/JJ	16cc/Jk	.	.
=60	=60	=60	=60
16BBB/LL	2d#\ [2b/	8.a\L]	.
16BB/	.	.	.
16AA#/	.	.	.
16BB/JJ	.	16a\k	.
16AA#/LL	.	8.gn\	.
16BB/	.	.	.
16AA#/	.	.	.
16BB/JJ	.	16f#\Jk	.
16BBB/LL	8.b/L]	2e\ 2g\	.
16BB/	.	.	.
16AA#/	.	.	.
16BB/JJ	16dd#/k	.	.
16AA#/LL	8.ee/	.	.
16BB/	.	.	.
16AA#/	.	.	.
16BB/JJ	16b/Jk	.	.
=61	=61	=61	=61
16BBB/LL	2c#\ [2a/	8.g\L	.
16BB/	.	.	.
16AA#/	.	.	.
16BB/JJ	.	16g\k	.
16AA#/LL	.	8.f#\	.
16BB/	.	.	.
16AA#/	.	.	.
16BB/JJ	.	16e\Jk	.
16BBB/LL	8.a/L]	2d#\ 2f#\	.
16BB/	.	.	.
16AA#/	.	.	.
16BB/JJ	16b/k	.	.
16AA#/LL	8.ccn/	.	.
16BB/	.	.	.
16AA#/	.	.	.
16BB/JJ	16a/Jk	.	.
=62	=62	=62	=62
16EE/LL	4g#/	4e\	pp
16E/	.	.	.
16D#/	.	.	.
16E/JJ	.	.	.
16D#/LL	2ryy	8.g#\ 8.ee\L	.
16E/	.	.	.
16D#/	.	.	.
16E/JJ	.	16g#\ 16ee\Jk	.
16EE/LL	.	4g#\ 4ee\	.
16E/	.	.	.
16D#/	.	.	.
16E/JJ	.	.	.
16D#/LL	4ee/	4g#\ 4ee\	.
16E/	.	.	.
16D#/	.	.	.
16E/JJ	.	.	.
=63	=63	=63	=63
16EE/LL	2a\ [2ffn/	8.ee\L	.
16E/	.	.	.
16D#/	.	.	.
16E/JJ	.	16ee\k	.
16D#/LL	.	8.ddn\	.
16E/	.	.	.
16D#/	.	.	.
16E/JJ	.	16cc#\Jk	.
16EE/LL	8.ff/L]	2b\ 2dd\	.
16E/	.	.	.
16D#/	.	.	.
16E/JJ	16gg#/k	.	.
16D#/LL	8.aa/	.	.
16E/	.	.	.
16D#/	.	.	.
16E/JJ	16ff/Jk	.	.
=64	=64	=64	=64
16EE/LL	2g#\ [2ee/	8.dd\L	.
16E/	.	.	.
16D#/	.	.	.
16E/JJ	.	16dd\k	.
16D#/LL	.	8.ccn\	.
16E/	.	.	.
16D#/	.	.	.
16E/JJ	.	16b\Jk	.
16EE/LL	8.ee/L]	2a\ [2cc\	.
16E/	.	.	.
16D#/	.	.	.
16E/JJ	16gg#/k	.	.
16D#/LL	8.aa/	.	.
16E/	.	.	.
16D#/	.	.	.
16E/JJ	16ee/Jk	.	.
=65	=65	=65	=65
16EE/LL	2f#\ [2dd/	8.cc\L]	.
16E/	.	.	.
16D#/	.	.	.
16E/JJ	.	16cc\k	.
16D#/LL	.	8.b\	.
16E/	.	.	.
16D#/	.	.	.
16E/JJ	.	16a\Jk	.
16EE/LL	8.dd/L]	2g#\ 2b\	.
16E/	.	.	.
16D#/	.	.	.
16E/JJ	16ee/k	.	.
16D#/LL	8.ffn/	.	.
16E/	.	.	.
16D#/	.	.	.
16E/JJ	16dd/Jk	.	.
=66	=66	=66	=66
16AA\LL	4cc#/	4a\	ff
16A\	.	.	.
16G#\	.	.	.
16A\JJ	.	.	.
16G#\LL	2ryy	8.cc#\ 8.aa\L	.
16A\	.	.	.
16G#\	.	.	.
16A\JJ	.	16cc#\ 16aa\Jk	.
16AA\LL	.	4cc#\ 4aa\	.
16A\	.	.	.
16G#\	.	.	.
16A\JJ	.	.	.
16G#\LL	4aa/	4cc#\ 4aa\	.
16A\	.	.	.
16G#\	.	.	.
16A\JJ	.	.	.
=67	=67	=67	=67
16AA\LL	2dd\ [2bb-/	8.aa\L	.
16A\	.	.	.
16G#\	.	.	.
16A\JJ	.	16aa\k	.
16G#\LL	.	8.ggn\	.
16A\	.	.	.
16G#\	.	.	.
16A\JJ	.	16ff#\Jk	.
16AA\LL	8.bb-/L]	2ee\ [2gg\	.
16A\	.	.	.
16G#\	.	.	.
16A\JJ	16ccc#/k	.	.
16G#\LL	8.ddd/	.	.
16A\	.	.	.
16G#\	.	.	.
16A\JJ	16bb-/Jk	.	.
=68	=68	=68	=68
16AA\LL	[2aa/ 2cc#\	8.gg\L]	.
16A\	.	.	.
16G#\	.	.	.
16A\JJ	.	16gg\k	.
16G#\LL	.	8.ffn\	.
16A\	.	.	.
16G#\	.	.	.
16A\JJ	.	16ee\Jk	.
16AA\LL	8.aa/L]	2dd\ [2ff\	.
16A\	.	.	.
16G#\	.	.	.
16A\JJ	16ccc#/k	.	.
16G#\LL	8.ddd/	.	.
16A\	.	.	.
16G#\	.	.	.
16A\JJ	16aa/Jk	.	.
=69	=69	=69	=69
16AA\LL	2b-\ [2gg/	8.ff\L]	.
16A\	.	.	.
16G#\	.	.	.
16A\JJ	.	16ff\k	.
16G#\LL	.	8.ee\	.
16A\	.	.	.
16G#\	.	.	.
16A\JJ	.	16dd\Jk	.
16AA\LL	8.gg/L]	2cc#\ 2ee\	.
16A\	.	.	.
16G#\	.	.	.
16A\JJ	16aa/k	.	.
16G#\LL	8.bb-/	.	.
16A\	.	.	.
16G#\	.	.	.
16A\JJ	16gg/Jk	.	.
=70	=70	=70	=70
16D\LL	4ff/	4dd\	.
16F\	.	.	.
16A\	.	.	.
16d\JJ	.	.	.
16f\LL	8ryy	8r	.
16e\	.	.	.
16d\	16ryy	16r	.
16cn\JJ	16ff/	16dd\	.
16Bn\LL	4ddd/	4ff\	.
16c\	.	.	.
16d\	.	.	.
16c\JJ	.	.	.
16B\LL	(8.ffT/L	4dd\	.
16Gn\	.	.	.
16A\	.	.	.
16B\JJ	32ee/LL	.	.
.	32ff/JJJ	.	.
=71	=71	=71	=71
16c\LL	4ee/)	4cc\	.
16B\	.	.	.
16c\	.	.	.
16d\JJ	.	.	.
16e\LL	8ryy	8r	.
16d\	.	.	.
16c\	16ryy	16r	.
16B\JJ	16ee/	16cc\	.
16A\LL	4ccc/	4ee\	.
16B\	.	.	.
16c\	.	.	.
16B\JJ	.	.	.
16A\LL	(8.eet/L	4cc\	.
16F\	.	.	.
16G\	.	.	.
16A\JJ	32dd/LL	.	.
.	32ee/JJJ	.	.
=72	=72	=72	=72
16B\LL	4dd/)	4b\	.
16A\	.	.	.
16B\	.	.	.
16c\JJ	.	.	.
16d\LL	8ryy	8r	.
16c\	.	.	.
16B\	16ryy	16r	.
16A\JJ	16dd/	16b\	.
16G#\LL	4bb/	4dd\	.
16A\	.	.	.
16B\	.	.	.
16A\JJ	.	.	.
16G#\LL	(8.ddT/L	4b\	.
16E\	.	.	.
16F#\	.	.	.
16G#\JJ	32cc/LL	.	.
.	32dd/JJJ	.	.
*	*v	*v	*
=73	=73	=73
4A\	16cc\LL	.
.	16a\	.
.	16cc\	.
.	16ee\JJ	.
4GGn/ 4Gn/	16e/LL	.
.	16gn/	.
.	16b/	.
.	16ee/JJ	.
4FF#/ 4F#/	16e/LL	.
.	16a/	.
.	16cc/	.
.	16ee/JJ	.
4FFn/ 4Fn/	16d#/LL	.
.	16a/	.
.	16cc/	.
.	16dd#/JJ)	.
=74	=74	=74
4EE/ 4E/	16ee\LL	.
.	16e\	.
.	16g#\	.
.	16b\JJ	.
8r	16ee\LL	.
.	16g#\	.
16r	16b\	.
16E\	16ee\JJ	.
4e\	16gg#\LL	.
.	16b\	.
.	16ee\	.
.	16gg#\JJ	.
(8.G#t\L	16bb\LL	.
.	16gg#\	.
.	16ee\	.
32F#\LL	16ddn\JJ	.
32G#\JJJ	.	.
=75	=75	=75
4A\)	16cc\LL	.
.	16a\	.
.	16cc\	.
.	16ee\JJ	.
8r	16aa\LL	.
.	16cc\	.
16r	16ee\	.
16AA/	16aa\JJ	.
4A\	16ccc\LL	.
.	16aa\	.
.	16ee\	.
.	16cc\JJ	.
(8.D#t\L	16aa\LL	.
.	16ff#\	.
.	16cc\	.
32C#\LL	16a\JJ	.
32D#\JJJ	.	.
=76	=76	=76
4E\)	16g#/LL	.
.	16e/	.
.	16g#/	.
.	16b/JJ	.
8r	16ee\LL	.
.	16g#\	.
16r	16b\	.
16E\	16ee\JJ	.
4e\	16gg#\LL	.
.	16b\	.
.	16ee\	.
.	16gg#\JJ	.
(8.G#t\L	16bb\LL	.
.	16gg#\	.
.	16ee\	.
32F#\LL	16ddn\JJ	.
32G#\JJJ	.	.
=77	=77	=77
4A\)	16cc\LL	.
.	16a\	.
.	16cc\	.
.	16ee\JJ	.
8r	16aa\LL	.
.	16cc\	.
16r	16ee\	.
16AA/	16aa\JJ	.
4A\	16ccc\LL	.
.	16aa\	.
.	16ee\	.
.	16cc\JJ	.
(8.D#t\L	16aa\LL	.
.	16ff#\	.
.	16cc\	.
32C#\LL	16a\JJ	.
32D#\JJJ	.	.
=78	=78	=78
4E\)	16g#\LL	.
.	16b\	.
.	16ee\	.
.	16g#\JJ	.
4FFn/ 4Fn/	16a\LL	.
.	16b\	.
.	16dd#\	.
.	16a\JJ	.
4EE/ 4E/	16g#\LL	.
.	16b\	.
.	16ee\	.
.	16g#\JJ	.
4FF/ 4F/	16a\LL	.
.	16b\	.
.	16dd#\	.
.	16a\JJ	.
=79	=79	=79
4EE/ 4E/	8g#\ 8b\ 8ee\	.
.	16e/LL	.
.	16d#/JJ	.
4r	16e/LL	.
.	16f/	.
.	16f#/	.
.	16gn/JJ	.
2r	16g#/LL	.
.	16a/	.
.	16b-/	.
.	16bn/JJ	.
.	16cc\LL	.
.	16cc#\	.
.	16ddn\	.
.	16dd#\JJ	.
=80	=80	=80
.	16dd#q/	.
8A\ 8c\ 8e\L	4ee\	.
8A\ 8c\ 8e\	.	.
8A\ 8c\ 8e\	8.ee\L	.
8A\ 8c\ 8e\J	.	.
.	16ee\Jk	.
8A\ 8c\ 8e\L	4ee\	.
8A\ 8c\ 8e\	.	.
8A\ 8c\ 8e\	8.cc\L	.
8A\ 8c\ 8e\J	.	.
.	16a\Jk	.
=81	=81	=81
.	16aq/	.
8A\ 8B\ 8d\ 8e\L	4g#/	.
8A\ 8B\ 8d\ 8e\	.	.
8A\ 8B\ 8d\ 8e\	2g#/	.
8A\ 8B\ 8d\ 8e\J	.	.
8A\ 8B\ 8d\ 8e\L	.	.
8A\ 8B\ 8d\ 8e\	.	.
8A\ 8B\ 8d\ 8e\	(8.dd\L	.
8A\ 8B\ 8d\ 8e\J	.	.
.	16b\Jk	.
=82	=82	=82
8A\ 8c\ 8e\L	4ee\)	.
8A\ 8c\ 8e\	.	.
8A\ 8c\ 8e\	8.ee\L	.
8A\ 8c\ 8e\J	.	.
.	16ee\Jk	.
8A\ 8c\ 8e\L	(8ee\L	.
8A\ 8c\ 8e\	16ff\L	.
.	16ee\JJ	.
8A\ 8c\ 8e\	16dd\LL	.
.	16cc\	.
8A\ 8c\ 8e\J	16b\	.
.	16a\JJ)	.
=83	=83	=83
.	16aq/	.
8A\ 8B\ 8d\ 8e\L	4g#/	.
8A\ 8B\ 8d\ 8e\	.	.
8A\ 8B\ 8d\ 8e\	2g#/	.
8A\ 8B\ 8d\ 8e\J	.	.
8A\ 8B\ 8d\ 8e\L	.	.
8A\ 8B\ 8d\ 8e\	.	.
8A\ 8B\ 8d\ 8e\	(8.dd\L	.
8A\ 8B\ 8d\ 8e\J	.	.
.	16b\Jk)	.
=84	=84	=84
8A\ 8c\ 8e\	8.cc\ (8.ee\L	.
8A\L	.	.
.	16a\ 16cc\Jk)	.
8E\	4cc\ 4ee\	.
8C\J	.	.
4AA/	8r	.
.	8a'\ 8cc'\L	p
4r	8b'\ 8dd'\	.
.	8cc'\ 8ee'\J	.
=85	=85	=85
*^	*	*
4ryy	4r	4cc#\ (4ee\	.
[4d/	(4F\ 4A\ (4c\	8dd\ 8ff\)	.
.	.	8r	.
8d/]	8G\) 8B\	8r	.
8ryy	8r	8g'\ 8b'\L	.
4ryy	4r	8a'\ 8ccn'\	.
.	.	8b'\ 8dd'\J	.
=86	=86	=86	=86
4ryy	4r	4b\ (4dd#\	.
[4c/	(4E\ 4G\ 4B\	8cc\ 8ee\)	.
.	.	8r	.
8c/]	8F\) 8A\	8r	.
8ryy	8r	8f'/ 8a'/L	.
4ryy	4r	8g#'/ 8b'/	.
.	.	8a'/ 8cc'/J	.
*v	*v	*	*
=87	=87	=87
4r	(8.cc\L	.
.	16b\k	.
4D\ 4F\ (4B\	8.ff\	.
.	16ddn\Jk	.
4E\ 4A\ 4c\	8.cc\L	.
.	16ee\k	.
4E\ 4G#\ 4B\)	8.dd\	.
.	16b\Jk)	.
=88	=88	=88
4AA\ 4A\	16cc\LL	f
.	16aa\	.
.	16cc\	.
.	16aa\JJ	.
8.A\L	16cc\LL	.
.	16aa\	.
.	16cc\	.
16A\Jk	16aa\JJ	.
4A\	16cc\LL	.
.	16aa\	.
.	16cc\	.
.	16aa\JJ	.
(8.F\L	16cc\LL	.
.	16aa\	.
.	16cc\	.
16D#\Jk	16aa\JJ	.
=89	=89	=89
8F\L	16b\LL	.
.	16aa\	.
8E\J)	16b\	.
.	16aa\JJ	.
2E\	16b\LL	.
.	16aa\	.
.	16b\	.
.	16aa\JJ	.
.	16b\LL	.
.	16ggn\	.
.	16b\	.
.	16gg\JJ	.
(8.Gn\L	16b-\LL	.
.	16gg\	.
.	16b-\	.
16E\Jk	16gg\JJ	.
=90	=90	=90
4F\)	16a\LL	.
.	16gg\	.
.	16a\	.
.	16gg\JJ	.
8.F\L	16a\LL	.
.	16gg\	.
.	16a\	.
16F\Jk	16gg\JJ	.
(8F\L	16a\LL	.
.	16ff\	.
16G\L	16a\	.
16F\JJ	16ff\JJ	.
16E\LL	16a\LL	.
16D\	16ff\	.
16C\	16a\	.
16BB\JJ	16ff\JJ	.
=91	=91	=91
8D/L	16g\LL	.
.	16ff\	.
8C/J)	16g\	.
.	16ff\JJ	.
[4C/	16g\LL	.
.	16ff\	.
.	16g\	.
.	16ff\JJ	.
8.C\L]	16g\LL	.
.	16ee\	.
.	16g\	.
(16G\k	16ee\JJ	.
8.E\	16g\LL	.
.	16ee\	.
.	16g\	.
16C#\Jk	16ee\JJ	.
=92	=92	=92
8E\L	16f/LL	.
.	16ee/	.
8D\)	16f/	.
.	16ee/JJ	.
8D'\	16f/LL	.
.	16ee/	.
8D'\J	16f/	.
.	16ee/JJ	.
(8D\L	16f/LL	.
.	16dd/	.
16E\L	16f/	.
16D\JJ	16dd/JJ	.
16Cn/LL	16f/LL	.
16BB/	16dd/	.
16AA/	16f/	.
16GG#/JJ	16dd/JJ	.
=93	=93	=93
8BB/L	16e/LL	.
.	16dd/	.
8AA/)	16e/	.
.	16dd/JJ	.
8AA'/	16e/LL	.
.	16cc/	.
8AA'/J	16e/	.
.	16cc/JJ	.
(8AA/L	16e/LL	.
.	16b/	.
8GGnX/)	16e/	.
.	16b/JJ	.
(8GG/	16e/ 16b/LL	.
.	16ee/	.
8G/J)	16e/ 16b/	.
.	16ee/JJ	.
=94	=94	=94
*	*^	*
4F#'\	(8ee/L	4a\	.
.	8dd#/J)	.	.
4Fn'\	8r	8r	.
.	8ddn/	8a\	.
4E'\	(8dd/L	4a\	.
.	8cc#/J)	.	.
4E'\	8r	8r	.
.	8ccn/	8a\	.
=95	=95	=95	=95
4D'\	(8a#/L	4an\	p
.	8b/J)	.	.
4E'\	8r	8r	.
.	8cc#/	8a\	.
4F'\	8r	8r	.
.	8dd/	8a\	.
4C#'/	8r	8r	.
.	8ee/	8a\	.
=96	=96	=96	=96
(4D\	(8gg/	2.a\	.
.	4ff/	.	.
4E\	.	.	.
.	8ee/)	.	.
4F\	(8dd/L	.	.
.	8ccn/	.	.
4D#\)	8b/	4f#\	.
.	8a/J)	.	.
*	*v	*v	*
=97	=97	=97
16E\LL	4g#\ 4b\ 4ee\	f
16B\	.	.
16G#\	.	.
16B\JJ	.	.
(16E\LL	8.ee\L	.
16B\	.	.
16G#\	.	.
16B\JJ	16ee\Jk	.
16E\LL	4ee\	.
16c\	.	.
16A\	.	.
16c\JJ	.	.
16E\LL	4ee\	.
16dn\	.	.
16B\	.	.
16d\JJ	.	.
=98	=98	=98
*	*^	*
16E\LL	(4.aa/	1a	.
16c\	.	.	.
16A\	.	.	.
16c\JJ	.	.	.
16E\LL	.	.	.
16c\	.	.	.
16A\	16gg/LL	.	.
16c\JJ	16ffn/JJ	.	.
16E\LL	4ee/	.	.
16c\	.	.	.
16A\	.	.	.
16c\JJ	.	.	.
16E\LL	4dd#/)	.	.
16c\	.	.	.
16A\	.	.	.
16c\JJ	.	.	.
*	*v	*v	*
=99	=99	=99
16E\LL	4g#:\ 4b:\ 4ee:\	.
16B\	.	.
16G#\	.	.
16B\JJ	.	.
16E\LL	8.ee\L	p
16B\	.	.
16G#\	.	.
16B\JJ	16ee\Jk	.
16E\LL	4ee\	.
16c\	.	.
16A\	.	.
16c\JJ	.	.
16E\LL	4ee\	.
16dn\	.	.
16B\	.	.
16d\JJ	.	.
=100	=100	=100
*	*^	*
16E\LL	(4.aa/	1a	.
16c\	.	.	.
16A\	.	.	.
16c\JJ	.	.	.
16E\LL	.	.	.
16c\	.	.	.
16A\	16ggn/LL	.	.
16c\JJ	16ff/JJ	.	.
16E\LL	4ee/	.	.
16c\	.	.	.
16A\	.	.	.
16c\JJ	.	.	.
16E\LL	4dd#/)	.	.
16c\	.	.	.
16A\	.	.	.
16c\JJ)	.	.	.
*	*v	*v	*
=101	=101	=101
4E\ 4G#\ 4B\	(16ee\LL	f
.	16b\	.
.	16g#\	.
.	16b\JJ	.
8r	16ee\LL	.
.	16cc\	.
8AA\ 8A\	16a\	.
.	16cc\JJ	.
4EE/ 4E/	16ee\LL	.
.	16b\	.
.	16g#\	.
.	16b\JJ	.
8r	16ee\LL	.
.	16cc\	.
8AA\ 8A\	16a\	.
.	16cc\JJ	.
=102	=102	=102
*	*^	*
4EE/ 4E/	2ryy	16ee\LL	.
.	.	16b\	.
.	.	16g#\	.
.	.	16b\JJ	.
8r	.	16ee\LL	.
.	.	16cc\	.
8AA\ 8A\	.	16a\	.
.	.	16cc\JJ	.
8EE/ 8E/L	16b/LL	8g#\L	.
.	16ee/	.	.
8AA/ 8A/	16cc/	8a\	.
.	16ee/JJ	.	.
8EE/ 8E/	16b/LL	8g#\	.
.	16ee/	.	.
8AA/ 8A/J	16cc/	8a\J	.
.	16ee/JJ	.	.
=103	=103	=103	=103
4EE/ 4E/	4b/)	4g#\	.
4EE/ 4E/	4e:/ 4g#:/ 4b:/ 4ee:/	2.ryy	.
4EE/ 4E/	8r	.	.
.	8ee'\L	.	p
4r	8ff#'\	.	.
.	8gg#'\J	.	.
*	*v	*v	*
*clefG2	*	*
=104	=104	=104
(8c/ 8e/L	(16aa\LL	.
.	16bb\	.
8d/ 8f/	16gg#\	.
.	16bb\JJ	.
8c/ 8e/	16aa\LL	.
.	16bb\	.
8d/ 8f/J	16gg#\	.
.	16bb\JJ	.
4c/) 4e/	16aa\LL	.
.	16bb\	.
.	16ggn\	.
.	16aa\JJ	.
4r	16ffn\LL	.
.	16gg\	.
.	16ee\	.
.	16ff\JJ	.
=105	=105	=105
(8f/ 8a/L	16dd\LL	.
.	16ee\	.
8g/ 8b-/	16cc#\	.
.	16ee\JJ	.
8f/ 8a/	16dd\LL	.
.	16ee\	.
8g/ 8b-/J	16cc#\	.
.	16ee\JJ	.
4f/) 4a/	16dd\LL	.
.	16ee\	.
.	16ccn\	.
.	16dd\JJ	.
4r	16b\LL	.
.	16cc\	.
.	16a\	.
.	16b\JJ	.
*clefF4	*	*
=106	=106	=106
8E\ 8BnX\ 8d\L	16g#/LL	.
.	16b/	.
8F\ 8B\ 8d\	16a/	.
.	16b/JJ	.
8E\ 8B\ 8d\	16g#/LL	.
.	16b/	.
8F\ 8B\ 8d\J	16a/	.
.	16b/JJ	.
4E\ 4B\ 4d\	16g#/LL	.
.	16b/	.
.	16f/	.
.	16b/JJ	.
4r	16e/LL	.
.	16b/	.
.	16d/	.
.	16b/JJ	.
=107	=107	=107
4AA\ 4A\	16c/LL)	.
.	(16e/	.
.	16d#/	.
.	16e/JJ	.
4r	16f/LL	.
.	16e/	.
.	16g#/	.
.	16e/JJ	.
2r	16a/LL	.
.	16e/	.
.	16b/	.
.	16e/JJ	.
.	16cc/LL	.
.	16e/	.
.	16ddn/	.
.	16e/JJ)	.
*clefG2	*	*
=108	=108	=108
8c/ 8a/L	(16ee\LL	.
.	16ff\	.
8c/ 8a/	16dd#\	.
.	16ff\JJ	.
8c/ 8a/	16ee\LL	.
.	16ff\	.
8c/ 8a/J	16dd#\	.
.	16ff\JJ	.
4c/ 4a/	16ee\LL	.
.	16aa\	.
.	16gg#\	.
.	16aa\JJ	.
4r	16bb\LL	.
.	16aa\	.
.	16gg#\	.
.	16aa\JJ	.
*clefF4	*	*
=109	=109	=109
*^	*	*
4r	2.D\	16ggn\LL	.
.	.	16ff\	.
.	.	16ee\	.
.	.	16ff\JJ	.
4F/	.	16ee\LL	.
.	.	16ddn\	.
.	.	16cc#\	.
.	.	16dd\JJ	.
[2B-/	.	16ccn\LL	.
.	.	16b-\	.
.	.	16a\	.
.	.	16b-\JJ	.
.	4D\	16a\LL	.
.	.	16b-\	.
.	.	16cc\	.
.	.	16dd\JJ)	.
=110	=110	=110	=110
4B-/]	2.C\	(16ff\LL	.
.	.	16ee\	.
.	.	16dd#\	.
.	.	16ee\JJ	.
4G#/	.	16ddn\LL	.
.	.	16cc\	.
.	.	16bn\	.
.	.	16cc\JJ	.
[2A/	.	16b/LL	.
.	.	16a/	.
.	.	16g#/	.
.	.	16a/JJ	.
.	4C\	16g#/LL	.
.	.	16a/	.
.	.	16b/	.
.	.	16cc/JJ	.
=111	=111	=111	=111
4A/]	4BBn\	16dd\LL	.
.	.	16ff\	.
.	.	16cc\	.
.	.	16ff\JJ	.
2d/	4F\	16b\LL	.
.	.	16ff\	.
.	.	16a\	.
.	.	16ff\JJ	.
.	4E\	16g#/LL	.
.	.	16b/	.
.	.	16f/	.
.	.	16b/JJ	.
4Bn/	4G#\	16e/LL	.
.	.	16b/	.
.	.	16d/	.
.	.	16b/JJ)	.
=112	=112	=112	=112
4A/	4A\	(16c/LL	.
.	.	16cc/	.
.	.	16b/	.
.	.	16cc/JJ	.
2E/	4AA\	16dd\LL	.
.	.	16cc\	.
.	.	16b\	.
.	.	16a\JJ	.
.	4BB\	16g#\LL)	.
.	.	(16dd\	.
.	.	16cc#\	.
.	.	16dd\JJ	.
4E/ 4G#/	4D\	16ee\LL	.
.	.	16dd\	.
.	.	16ccn\	.
.	.	16b\JJ	.
*v	*v	*	*
=113	=113	=113
4C\ 4E\ 4A\	16a\LL)	.
.	(16b\	.
.	16cc\	.
.	16b\JJ	.
4r	16cc\LL	.
.	16dd#\	.
.	16ee\	.
.	16dd#\JJ	.
4r	16ee\LL	.
.	16gg#\	.
.	16aa\	.
.	16gg#\JJ	.
4C#\ 4E\ 4A\	16aa\LL	.
.	16ggn\	.
.	16ff\	.
.	16ee\JJ	.
=114	=114	=114
(16D\LL	16ff\LL	.
16A\	16gg\	.
16F\	16aa\	.
16A\JJ	16ff\JJ	.
16D\LL	16ddn\LL	.
16A\	16ee\	.
16F\	16ff\	.
16A\JJ	16dd\JJ	.
16D\LL	16b\LL	.
16B\	16cc\	.
16F\	16dd\	.
16B\JJ	16b\JJ	.
16D\LL	16ee\LL	.
16B\	16ff\	.
16F\	16dd\	.
16B\JJ	16b\JJ	.
=115	=115	=115
16E\LL	16dd#\LL	.
16c\	16ee\	.
16A\	16ff\	.
16c\JJ	16ee\JJ	.
16E\LL	16ddn\LL	.
16c\	16cc\	.
16A\	16b\	.
16c\JJ	16a\JJ)	.
16E\LL	2bt\	.
16d\	.	.
16G#\	.	.
16d\JJ	.	.
16E\LL	.	.
16d\	.	.
16G#\	.	.
16d\JJ	.	.
.	(32aq/LLL	.
.	32bq/JJJ)	.
=116	=116	=116
4A\ 4c\)	16r	.
.	(16aa\LL	p
.	16gg\	.
.	16ff\JJ	.
4r	16ee\LL	.
.	16ff\	.
.	16dd#\	.
.	16ff\JJ	.
4r	16ee\LL	.
.	16ff\	.
.	16dd#\	.
.	16ff\JJ	.
*clefG2	*	*
8g#'/L	16ee\LL	.
.	16ff\	.
8e'/J	16ddn\	.
.	16ee\JJ	.
=117	=117	=117
4a/	16cc\LL)	.
.	(16aa\	.
.	16gg\	.
.	16ff\JJ	.
4r	16ee\LL	.
.	16ff\	.
.	16dd#\	.
.	16ff\JJ	.
4r	16ee\LL	.
.	16ff\	.
.	16dd#\	.
.	16ff\JJ	.
8g#'/L	16ee\LL	.
.	16ff\	.
8e'/J	16ddn\	.
.	16ee\JJ	.
=118	=118	=118
4a/	16cc\LL	.
.	16dd\	.
.	16ee\	.
.	16dd\JJ	.
4r	16cc\LL	.
.	16b\	.
.	16a\	.
.	16g#\JJ	.
*clefF4	*	*
2C\ 2E\ 2A\	16a\LL	.
.	16b\	.
.	16cc\	.
.	16b\JJ	.
.	16a/LL	.
.	16gn/	.
.	16f/	.
.	16e/JJ	.
=119	=119	=119
2D\ 2F\	16d/LL	.
.	16B-/	.
.	16f/	.
.	16d/JJ	.
.	16b-\LL	.
.	16f\	.
.	16dd\	.
.	16b-\JJ	.
2D\ 2F\ 2G#\ 2Bn\	16ff\LL	.
.	16dd\	.
.	16gg#\	.
.	16ff\JJ	.
.	16bbn\LL	.
.	16gg#\	.
.	16ddd\	.
.	16bb\JJ	.
=120	=120	=120
*^	*	*
4ryy	4C\ 4E\ 4A\	16eee\LL	.
.	.	16ccc\	.
.	.	16aa\	.
.	.	16ee\JJ	.
2A/	4D\	16ggn\LL	.
.	.	16ff\	.
.	.	16ee\	.
.	.	16dd\JJ	.
.	4E\	4cc\)	.
4G#/	4E\	4bt\	.
.	.	16aq/LL	.
.	.	16bq/JJ	.
*v	*v	*	*
*clefG2	*	*
=121	=121	=121
16r	4a/	p
(16a/LL	.	.
16gn/	.	.
16f/JJ	.	.
16e/LL	4r	.
16f/	.	.
16d#/	.	.
16f/JJ	.	.
16e/LL	4r	.
16f/	.	.
16d#/	.	.
16f/JJ	.	.
16e/LL	8b'\ 8gg#'\L	.
16f/	.	.
16dn/	8ee'\J	.
16e/JJ	.	.
=122	=122	=122
16c/LL)	4cc\ 4aa\	.
(16a/	.	.
16gn/	.	.
16f/JJ	.	.
16e/LL	4r	.
16f/	.	.
16d#/	.	.
16f/JJ	.	.
16e/LL	4r	.
16f/	.	.
16d#/	.	.
16f/JJ	.	.
16e/LL	8b'\ 8gg#'\L	.
16f/	.	.
16dn/	8ee'\J	.
16e/JJ	.	.
*clefF4	*	*
=123	=123	=123
*	*^	*
16c\LL	4ryy	4cc\ 4aa\	.
16d\	.	.	.
16B\	.	.	.
16c\JJ	.	.	.
16A\LL	(8.eet/L	4r	.
16B\	.	.	.
16G\	.	.	.
16A\JJ	32dd/LL	.	.
.	32ee/JJJ	.	.
16F\LL	[2aa/)	4r	.
16G\	.	.	.
16E\	.	.	.
16F\JJ	.	.	.
16D\LL	.	(8.ccT\L	.
16E\	.	.	.
16C\	.	.	.
16D\JJ	.	32b\LL	.
.	.	32cc\JJJ)	.
=124	=124	=124	=124
16BB/LL	4aa/]	2.dd\	.
16C/	.	.	.
16AA/	.	.	.
16BB/JJ	.	.	.
16GG#/LL	(8.bb/L	.	.
16AA/	.	.	.
16FF#/	.	.	.
16GG#/JJ	16ccc/Jk	.	.
16EE/LL	4ddd/)	.	.
16FFn/	.	.	.
16DD/	.	.	.
16EE/JJ	.	.	.
16CC/LL	(8.gg#t/L	[4ee\	.
16DD/	.	.	.
16BBB/	.	.	.
16DD/JJ	32ff#/LL	.	.
.	32gg#/JJJ	.	.
=125	=125	=125	=125
8CC/)	16aa/LL	16ee\]	f
.	16gg#/	8.ryy	.
8r	16aa/	.	.
.	16ee/JJ)	.	.
8DD/	(16ggn/LL	8b\	.
.	16ff/	.	.
8r	16ee/	8ryy	.
.	16dd/JJ	.	.
8EE/	(16cc/LL)	16a\	.
.	16dd/	8.ryy	.
8r	16ee/	.	.
.	16cc/JJ)	.	.
8EE/	(16b/LL	16g#\	.
.	16cc/	8.ryy	.
8r	16dd/	.	.
.	16b/JJ)	.	.
*	*v	*v	*
=126	=126	=126
*^	*	*
1D 1G# 1B	1F	(16ddd\LL	.
.	.	16fff\	.
.	.	16bb\	.
.	.	16ddd\JJ	.
.	.	16gg#\LL	.
.	.	16bb\	.
.	.	16ff\	.
.	.	16gg#\JJ	.
.	.	16dd\LL	.
.	.	16ff\	.
.	.	16b\	.
.	.	16dd\JJ	.
.	.	16g#/LL	.
.	.	16b/	.
.	.	16f/	.
.	.	16g#/JJ)	.
*v	*v	*	*
=127	=127	=127
(16c\LL	1cc 1dd# 1ff# 1aa 1ccc	.
16d#\	.	.
16A\	.	.
16c\JJ	.	.
16F#\LL	.	.
16A\	.	.
16D#\	.	.
16F#\JJ	.	.
16C/LL	.	.
16D#/	.	.
16AA/	.	.
16C/JJ	.	.
16FF#/LL	.	.
16AA/	.	.
16DD#/	.	.
16FF#/JJ	.	.
=128	=128	=128
4EE/)	16r	.
.	(16aa\LL	.
.	16ee\	.
.	16cc\JJ	.
16r	16a/LL	.
(16E/LL	16e/	.
16C/	16c/	.
16AA/JJ	16A/JJ)	.
4EE/)	4e/	.
4E\	4e/ 4g#/ 4b/ 4ee/	.
=129	=129	=129
(16A\LL	4a/	.
16B\	.	.
16c\	.	.
16B\JJ	.	.
16A\LL	8.a/ 8.cc/L	.
16Gn\	.	.
16Fn\	.	.
16E\JJ	16a/ 16cc/Jk	.
16F\LL	4a/ 4cc/	.
16G\	.	.
16A\	.	.
16G\JJ	.	.
16F\LL	8.a/ 8.cc/L	.
16E\	.	.
16D\	.	.
16C\JJ	16a/ 16cc/Jk	.
=130	=130	=130
16D\LL	4a/ 4b/	.
16E\	.	.
16F\	.	.
16E\JJ	.	.
16D\LL	8.a/ 8.b/L	.
16BB\	.	.
16C\	.	.
16D\JJ	16a/ 16b/Jk	.
16E\LL	4g#\ 4b\ 4ee\	.
16D#\	.	.
16E\	.	.
16D#\JJ	.	.
16E\LL	8.g#\ 8.b\ 8.ee\L	.
16Dn\	.	.
16C\	.	.
16BB\JJ	16g#\ 16b\ 16ee\Jk	.
=131	=131	=131
16AA/LL	4a\ 4cc\	.
16BB/	.	.
16C/	.	.
16BB/JJ	.	.
16AA/LL	8.a\ 8.cc\ 8.aa\L	.
16GG/	.	.
16FF/	.	.
16EE/JJ	16a\ 16cc\ 16aa\Jk	.
16FF/LL	4a\ 4cc\ 4aa\	.
16GG/	.	.
16AA/	.	.
16GG/JJ	.	.
16FF/LL	8.a\ 8.cc\ 8.aa\L	.
16EE/	.	.
16DD/	.	.
16CC/JJ	16a\ 16cc\ 16aa\Jk	.
=132	=132	=132
16DD/LL	4b\ 4ff\ 4aa\	.
16EE/	.	.
16FF/	.	.
16EE/JJ	.	.
16DD/LL	8.b\ 8.ff\ 8.aa\L	.
16BBB/	.	.
16CC/	.	.
16DD/JJ	16b\ 16ff\ 16aa\Jk	.
16EE/LL	4b\ 4ee\ 4gg#\	.
16DD#/	.	.
16EE/	.	.
16DD#/JJ	.	.
16EE/LL	8.b\ 8.ee\ 8.gg#\L	.
16DD#/	.	.
16CCn/	.	.
16BBB/JJ	16b\ 16ee\ 16gg#\Jk	.
=133	=133	=133
4AAA/)	4cc\ 4ee\ 4aa\	.
4AAA/ 4AA/	4a\ 4cc\ 4ee\	.
4AAA/ 4AA/	4e/ 4a/ 4cc/	.
4r	4r	.
==:|!	==:|!	==:|!
*-	*-	*-
!!!SMS: Alte Mozart-Ausgabe, Band 20, Breitkopf &amp; H&auml;rtel 1877-1883.
!!!ONB: Stich und Druck von Breitkopf &amp; H&auml;rtel in Leipzig
!!!ONB: Ausgegeben 1878
!!!ENC: Craig Stuart Sapp
!!!END: 2009/09/28/
!!!title: @{OTL}, K 310 (300d), @{OMV}
!!!hum2abc: --no-tempo -s 0.71 --spacing 1.9 -p "%gracespace  0 6.0 12.0"
